X: 5394
T: Buddy Furey's
R: polka
M: 2/4
K: Amajor
e/d/|cA A/B/c/A/|dB Be/d/|cA A/B/c/A/|BE Ee/d/|
cA A/B/c/A/|dB Be/d/|cA/c/ BE|A2 A:|
B|ce ee|f>g a/f/e/d/|ce ec|B>c d/c/B/A/|
ce ee|f>g a/f/e/d/|cA/c/ BE|A2 A:|

